X:895
T:Vivace
T:From a 18th Century sonata
C:anon.
Z:Transcribed by Frank Nordberg - http://www.musicaviva.com
F:http://abc.musicaviva.com/tunes/anon/vivace-d/vivace-d-1.abc
M:C
L:1/16
K:D
d2|c2d2 A2f2 f2e2 z2 f2|gefg A2g2 g2f2 z2 f2|e2A2 a2gf e2A2 z2 f2|
d2B2 ^GBe2 c4 z2 c2|B2fe dcBA ^G2 z2 z2 E2|ABcd ef^ge a2 e4 fg|
a2 e4 f^g a6 gf|e2d2c2B2 A2 E4 F^G|A2 E4 F^G A4 z2 f2|
e2d2c2B2 A6::e2|cABc d2e2 f4 z2 f2|e2gf edcB ^A4 z2 f2|
dBcd edef g2 B4 c^d|e^ded e2f2 g4 z2 e2|cABc dcde f2 A4 Bc|
dcdc d2e2 f4 z2 f2|gfed edcB ^A4 z2 F2|B3d c3e d3f e3g|
f6 ge f2ed c2B2|c4 ^A4 B4 z2 =A2|F2A2 d2d2 dBc2 z2 e2|
c2e2 g2g2 gef2 z2 a2|b2 g4 af g2 e4 fg|a2 f4 ge f2 d4 d2|
B2cd e2fg c4 z2 A2|defg a2bc' d'2 a4 bc'|d'2 a4 bc' d'6 c'b|
a2g2 f2e2 d2 A4 Bc|d2 A4 Bc d4 z2 b2|a2g2f2e2 d6:|
W:
W:
W:  From Musica Viva - http://www.musicaviva.com
W:  the Internet center for free sheet music downloads.
